X:1
T:Title
%%score 1 2 3
L:1/8
Q:1/4=150
M:4/4
K:F
V:1 treble nm="Grand Piano"
V:2 bass nm="Grand Piano, Melody"
V:3 bass nm="Grand Piano"
V:1
 z4 B4 | B2 d2 c2 dc | B2 B2 c2 Bc | d2 d2 cB G2 | B4 B4 | z4 B4 | B2 d2 c2 dc | B2 B2 c2 Bc | %8
 d2 d2 cB G2 | B4 B4 | z4 [Bg]4 | f2 d2 c2 c2 | d2 f2 d2 d2 | c2 d2 B2 Bc | d4 c4- | c4 [Bf]4 | %16
 f2 d2 c2 c2 | d2 f2 d2 dc | B2 B2 cB G2 | B4 B4 |] %20
V:2
 z4 F,4 | F,G, B,2 C2 B,[K:treble]C | D2 D2 CB,[K:bass] G,2 | B,2 B,2 CB, G,2 | F,4 F,4 | z4 F,4 | %6
 F,G, B,2 C2 B,[K:treble]C | D2 D2 CB,[K:bass] G,2 | B,2 B,2 CB, G,2 | F,4 F,4 | z4[K:treble] B,4 | %11
 C2 D2 F2 C2 | D2 C2 B,2 B,2 | C2 D2 F2 F2 | D4 C4- | C4 B,4 | C2 D2 F2 F2 | D2 C2 B,2 B,C | %18
 D2 D2[K:bass] CB, G,2 | F,4 F,4 |] %20
V:3
 z4 B,,4 | B,,2 B,,2 F,2 F,2 | D,2 D,2 F,2 B,2 | G,2 G,2 F,2 D,2 | B,,4 B,,4 | z4 B,,4 | %6
 B,,2 B,,2 F,2 F,2 | D,2 D,2 F,2 B,2 | G,2 G,2 F,2 D,2 | B,,4 B,,4 | z4 B,4 | F,2 G,2 F,2 F,2 | %12
 B,,2 F,2 [B,,B,]2 [B,,B,]2 | F,2 G,2 F,2 F,2 | D,4 F,4- | F,4 B,4 | F,2 G,2 F,2 F,2 | %17
 D,2 F,2 B,2 B,A, | G,2 G,2 F,2 D,2 | B,,4 B,,4 |] %20

